Numix-Light/22/status/clementine-95-playing.svg

<?xml version="1.0" encoding="UTF-8" standalone="no"?>
<svg
   xmlns:dc="http://purl.org/dc/elements/1.1/"
   xmlns:cc="http://creativecommons.org/ns#"
   xmlns:rdf="http://www.w3.org/1999/02/22-rdf-syntax-ns#"
   xmlns:svg="http://www.w3.org/2000/svg"
   xmlns="http://www.w3.org/2000/svg"
   xmlns:sodipodi="http://sodipodi.sourceforge.net/DTD/sodipodi-0.dtd"
   xmlns:inkscape="http://www.inkscape.org/namespaces/inkscape"
   version="1.2"
   width="22"
   height="22"
   id="svg2"
   inkscape:version="0.91 r"
   sodipodi:docname="clementine-95-playing.svg">
  <metadata
     id="metadata41">
    <rdf:RDF>
      <cc:Work
         rdf:about="">
        <dc:format>image/svg+xml</dc:format>
        <dc:type
           rdf:resource="http://purl.org/dc/dcmitype/StillImage" />
        <dc:title>Clementine Music Player Logo</dc:title>
      </cc:Work>
    </rdf:RDF>
  </metadata>
  <sodipodi:namedview
     pagecolor="#ffffff"
     bordercolor="#666666"
     borderopacity="1"
     objecttolerance="10"
     gridtolerance="10"
     guidetolerance="10"
     inkscape:pageopacity="0"
     inkscape:pageshadow="2"
     inkscape:window-width="1920"
     inkscape:window-height="1056"
     id="namedview39"
     showgrid="true"
     inkscape:zoom="16"
     inkscape:cx="8.5964703"
     inkscape:cy="7.2504132"
     inkscape:window-x="0"
     inkscape:window-y="24"
     inkscape:window-maximized="1"
     inkscape:current-layer="svg2">
    <inkscape:grid
       type="xygrid"
       id="grid4135" />
  </sodipodi:namedview>
  <title
     id="title4">Clementine Music Player Logo</title>
  <defs
     id="defs6" />
  <path
     style="fill:#353535;fill-opacity:1;opacity:0.4"
     inkscape:connector-curvature="0"
     id="path20"
     d="m 5.7858497,3.907717 c -0.033565,0.0022 -0.070332,0.00621 -0.103397,0.011462 -0.031396,0.00503 -0.061009,0.015099 -0.091908,0.022961 -0.00368,0.0011 -0.00783,-0.0011 -0.01147,0 C 5.5445907,3.95132 5.5089817,3.963925 5.4756777,3.976563 4.815719,4.1970103 3.8538895,5.0409964 3.5341105,5.7674937 3.3967919,6.0658169 3.2795976,6.3975562 3.1779652,6.8007233 2.9895454,7.5468713 2.9375914,8.5439517 3.0860562,9.7167271 3.2073018,10.706728 3.4854316,11.86252 4.028118,13.103425 c 0.3369769,0.897383 1.0096845,2.001717 2.2632462,3.099689 0.147219,0.109065 0.2901256,0.21281 0.4365652,0.309968 1.1776012,0.781232 2.2326921,1.127674 3.0559567,1.262837 1.3498679,0.301174 2.5621289,0.361239 3.5959199,0.298488 1.228764,-0.07028 2.25168,-0.30678 2.987024,-0.642898 0.309519,-0.16801 0.719184,-0.418512 0.942062,-0.619938 0.656594,-0.593388 1.1757,-1.110315 1.459047,-1.561325 0.0114,-0.0158 0.0239,-0.02998 0.03445,-0.04592 0.03158,-0.05293 0.056,-0.09808 0.08042,-0.149244 0.01202,-0.02403 0.02426,-0.04453 0.03445,-0.06888 0.01794,-0.043 0.0336,-0.08453 0.04595,-0.126284 0.0033,-0.02494 0.0086,-0.02638 0.01147,-0.04592 0.0037,-0.01455 0.0086,-0.03152 0.01147,-0.04592 0.0051,-0.03247 0.0086,-0.08874 0.01147,-0.103323 0.0055,-0.0273 -2.68e-4,-0.02285 0,-0.02296 -2.5e-4,-1.66e-4 0.0015,-0.0066 0,-0.03442 -0.0018,-0.0284 -3.01e-4,-0.078 0,-0.183685 -0.0088,-0.07061 -0.02485,-0.147779 -0.04595,-0.218126 -0.04235,-0.13905 -0.106199,-0.275576 -0.195306,-0.413292 -0.173295,-0.267858 -0.428437,-0.53189 -0.758245,-0.792143 -0.611562,-0.482486 -1.468976,-0.948815 -2.47004,-1.4006 -0.852424,-0.38546 -1.789505,-0.737217 -2.69981,-1.125073 -0.635699,-0.30968 -1.137501,-0.47244 -1.321189,-0.6199466 -0.02283,-0.018332 -0.03312,-0.039074 -0.04595,-0.057402 C 11.294652,9.7645587 11.029302,9.315147 10.565017,8.7523978 10.029095,8.0277557 9.5176168,7.2611746 9.0025727,6.5596548 8.4007193,5.7377734 7.8191813,5.0443578 7.2678003,4.5735577 6.9701271,4.3194328 6.6828911,4.1332311 6.4061584,4.0225019 6.2637701,3.9655191 6.1282014,3.9218387 5.9925702,3.9076986 c -0.068707,-0.00731 -0.1400317,-0.00445 -0.206794,0 z" />
  <text
     style="font-size:2.94001746px;font-family:'Bitstream Vera Sans'"
     id="text37"
     font-size="8"
     transform="scale(1.0003583,0.99964178)"
     y="16.625875"
     x="20.678432" />
  <path
     style="fill:#353535;fill-opacity:1"
     d="M 6.8105469 4.234375 L 3.4980469 5.8574219 C 3.3770148 6.1337164 3.2698209 6.4354818 3.1777344 6.8007812 C 2.9893146 7.5469293 2.9374727 8.5440219 3.0859375 9.7167969 C 3.2071831 10.706798 3.4846573 11.862611 4.0273438 13.103516 C 4.3643206 14.000899 5.0374539 15.105153 6.2910156 16.203125 C 6.4382346 16.31219 6.582076 16.416514 6.7285156 16.513672 C 7.9061168 17.294904 8.9599385 17.640228 9.7832031 17.775391 C 11.133071 18.076565 12.345115 18.13697 13.378906 18.074219 C 14.60767 18.003939 15.631844 17.767759 16.367188 17.431641 C 16.676707 17.263631 17.085716 17.013926 17.308594 16.8125 C 17.965188 16.219112 18.484231 15.70101 18.767578 15.25 C 18.778978 15.2342 18.792184 15.221018 18.802734 15.205078 C 18.834314 15.152148 18.858392 15.105852 18.882812 15.054688 C 18.894832 15.030658 18.907779 15.010678 18.917969 14.986328 C 18.935909 14.943328 18.950541 14.901129 18.962891 14.859375 C 18.966191 14.834435 18.971739 14.833993 18.974609 14.814453 C 18.978309 14.799903 18.983458 14.781978 18.986328 14.767578 C 18.991428 14.735108 18.995177 14.678645 18.998047 14.664062 C 19.003547 14.636762 18.997779 14.642688 18.998047 14.642578 C 18.997797 14.642412 18.999547 14.635242 18.998047 14.607422 C 18.996247 14.579022 18.997746 14.529513 18.998047 14.423828 C 18.989247 14.353218 18.972272 14.275425 18.951172 14.205078 C 18.908822 14.066028 18.844966 13.930685 18.755859 13.792969 C 18.582564 13.525111 18.327855 13.260253 17.998047 13 C 17.386485 12.517514 16.528408 12.051394 15.527344 11.599609 C 14.67492 11.214149 13.73843 10.862465 12.828125 10.474609 C 12.192426 10.164929 11.691501 10.002976 11.507812 9.8554688 C 11.484982 9.8371387 11.473768 9.815205 11.460938 9.796875 C 11.294461 9.764325 11.028738 9.3147021 10.564453 8.7519531 C 10.028531 8.0273091 9.5169972 7.2620667 9.0019531 6.5605469 C 8.4000997 5.7386655 7.8189591 5.0450188 7.2675781 4.5742188 C 7.111941 4.4413506 6.9604682 4.3290281 6.8105469 4.234375 z "
     id="path4144" />
</svg>

<svg xmlns="http://www.w3.org/2000/svg" viewBox="0 0 22 22">
 <path d="m 5.786 3.908 c -0.034 0.002 -0.07 0.006 -0.103 0.011 -0.031 0.005 -0.061 0.015 -0.092 0.023 -0.004 0.001 -0.008 -0.001 -0.011 0 c -0.034 0.009 -0.07 0.022 -0.103 0.034 -0.66 0.22 -1.622 1.064 -1.942 1.791 -0.137 0.298 -0.255 0.63 -0.356 1.033 -0.188 0.746 -0.24 1.743 -0.092 2.916 0.121 0.99 0.399 2.146 0.942 3.387 c 0.337 0.897 1.01 2 2.263 3.1 0.147 0.109 0.29 0.213 0.437 0.31 1.178 0.781 2.233 1.128 3.056 1.263 1.35 0.301 2.562 0.361 3.596 0.298 1.229 -0.07 2.252 -0.307 2.987 -0.643 0.31 -0.168 0.719 -0.419 0.942 -0.62 0.657 -0.593 1.176 -1.11 1.459 -1.561 0.011 -0.016 0.024 -0.03 0.034 -0.046 0.032 -0.053 0.056 -0.098 0.08 -0.149 0.012 -0.024 0.024 -0.045 0.034 -0.069 0.018 -0.043 0.034 -0.085 0.046 -0.126 0.003 -0.025 0.009 -0.026 0.011 -0.046 0.004 -0.015 0.009 -0.032 0.011 -0.046 0.005 -0.032 0.009 -0.089 0.011 -0.103 0.006 -0.027 0 -0.023 0 -0.023 0 0 0.002 -0.007 0 -0.034 -0.002 -0.028 0 -0.078 0 -0.184 -0.009 -0.071 -0.025 -0.148 -0.046 -0.218 -0.042 -0.139 -0.106 -0.276 -0.195 -0.413 -0.173 -0.268 -0.428 -0.532 -0.758 -0.792 -0.612 -0.482 -1.469 -0.949 -2.47 -1.401 -0.852 -0.385 -1.79 -0.737 -2.7 -1.125 -0.636 -0.31 -1.138 -0.472 -1.321 -0.62 -0.023 -0.018 -0.033 -0.039 -0.046 -0.057 c -0.166 -0.033 -0.432 -0.482 -0.896 -1.045 -0.536 -0.725 -1.047 -1.491 -1.562 -2.193 -0.602 -0.822 -1.183 -1.515 -1.735 -1.986 -0.298 -0.254 -0.585 -0.44 -0.862 -0.551 -0.142 -0.057 -0.278 -0.101 -0.414 -0.115 c -0.069 -0.007 -0.14 -0.004 -0.207 0 z" style="fill:#353535;opacity:0.4;fill-opacity:1"/>
 <text transform="scale(1.0003583,0.99964178)" y="16.626" x="20.678" style="font-size:2.94;font-family:&apos;Bitstream Vera Sans&apos;"/>
 <path d="m 6.811 4.234 l -3.313 1.623 c -0.121 0.276 -0.228 0.578 -0.32 0.943 c -0.188 0.746 -0.24 1.743 -0.092 2.916 c 0.121 0.99 0.399 2.146 0.941 3.387 c 0.337 0.897 1.01 2 2.264 3.1 c 0.147 0.109 0.291 0.213 0.438 0.311 c 1.178 0.781 2.231 1.127 3.055 1.262 c 1.35 0.301 2.562 0.362 3.596 0.299 c 1.229 -0.07 2.253 -0.306 2.988 -0.643 c 0.31 -0.168 0.719 -0.418 0.941 -0.619 c 0.657 -0.593 1.176 -1.111 1.459 -1.563 c 0.011 -0.016 0.025 -0.029 0.035 -0.045 c 0.032 -0.053 0.056 -0.099 0.08 -0.15 c 0.012 -0.024 0.025 -0.044 0.035 -0.068 c 0.018 -0.043 0.033 -0.085 0.045 -0.127 c 0.003 -0.025 0.009 -0.025 0.012 -0.045 c 0.004 -0.015 0.009 -0.032 0.012 -0.047 c 0.005 -0.032 0.009 -0.089 0.012 -0.104 c 0.006 -0.027 0 -0.021 0 -0.021 c 0 0 0.002 -0.007 0 -0.035 c -0.002 -0.028 0 -0.078 0 -0.184 c -0.009 -0.071 -0.026 -0.148 -0.047 -0.219 c -0.042 -0.139 -0.106 -0.274 -0.195 -0.412 c -0.173 -0.268 -0.428 -0.533 -0.758 -0.793 c -0.612 -0.482 -1.47 -0.949 -2.471 -1.4 c -0.852 -0.385 -1.789 -0.737 -2.699 -1.125 c -0.636 -0.31 -1.137 -0.472 -1.32 -0.619 c -0.023 -0.018 -0.034 -0.04 -0.047 -0.059 c -0.166 -0.033 -0.432 -0.482 -0.896 -1.045 c -0.536 -0.725 -1.047 -1.49 -1.562 -2.191 c -0.602 -0.822 -1.183 -1.516 -1.734 -1.986 c -0.156 -0.133 -0.307 -0.245 -0.457 -0.34 z" style="fill:#353535;fill-opacity:1"/>
</svg>
